X:1
T:Title
%%score { ( 1 3 ) | ( 2 4 ) }
L:1/8
M:4/4
K:F
V:1 treble nm="Grand Piano"
V:3 treble 
V:2 bass 
V:4 bass 
V:1
 z4 z2[Q:1/4=100] A2 | A2 G2 G2 F2 | F4 E2 [DEB]2 | [DEB]2 [CEA]2 [CEA]2 [CEG]2 | [CFc]6 [CFc]2 | %5
 [Fd]2 [Fc]2 [FB]2 [FA]2 | [Ac]4 B2 A2 | A2 G2 G2 A2 | [EG]6 [EG]2 | [FA]2 [FA]2 [GA]2 [GA]2 | %10
[M:3/4] [FA]4 F2 |[M:1/4] F2 |[M:4/4] B2 B2 [_Ad]2 [Ad]2 | G2 z2 z4 | A2 A2 [Gc]2 [Gc]2 | %15
 f2 d2 [DFB]2 [B,DG]2 | [Fd]2 [Fc]2 [EB]2 E2 |[M:3/4] F6 |] %18
V:2
 z4 z2 [F,CF]2 | [F,CF]2 [F,B,C]2 [F,B,C]2 [F,A,C]2 | [G,B,C]4 [G,B,C]2 C,2 | C,2 C,2 C,2 B,,2 | %4
 A,,6 A,,2 | [D,A,]2 [D,A,]2 [D,D]2 [D,D]2 | [G,_E]4 [G,DG]2 [A,CF]2 | %7
 [B,DF]2 [B,DF]2 [G,=B,F]2 [G,B,F]2 | [C,C]6 [C,C]2 | [F,C]2 [F,C]2 [E,^C]2 [E,C]2 | %10
[M:3/4] [D,D]4 [D,A,D]2 |[M:1/4] [D,A,D]2 | %12
[M:4/4][K:treble] [G,B,D]2 [G,DG]2[K:bass] [F,=B,]2 [F,B,]2 | E,2 C,2 D,2 [E,C]2 | %14
 [F,CF]2 [F,CF]2 [E,G,]2 [E,G,]2 | A,2 B,2 B,,2 B,,2 | [C,A,]2 [C,A,]2 [C,G,]2 [C,B,C]2 | %17
[M:3/4] [F,A,C]6 |] %18
V:3
 x8 | x8 | x8 | x8 | x8 | x8 | x8 | x8 | x8 | x8 |[M:3/4] x6 |[M:1/4] x2 |[M:4/4] x8 | %13
 [Cc]2- [C-Ec-]2 [CFc]2 G2 | x8 | F4 z4 | x8 |[M:3/4] x6 |] %18
V:4
 x8 | x8 | x8 | x8 | x8 | x8 | x8 | x8 | x8 | x8 |[M:3/4] x6 |[M:1/4] x2 | %12
[M:4/4][K:treble] x4[K:bass] x4 | x8 | x8 | D,4 z4 | x8 |[M:3/4] x6 |] %18

